leak.svg

<svg fill="currentColor" viewBox="0 0 24 24"><path d="M6 3H3v3a3 3 0 0 0 3-3m8 0h-2a9 9 0 0 1-9 9v2c6.08 0 11-4.93 11-11m-4 0H8a5 5 0 0 1-5 5v2a7 7 0 0 0 7-7m0 18h2a9 9 0 0 1 9-9v-2a11 11 0 0 0-11 11m8 0h3v-3a3 3 0 0 0-3 3m-4 0h2a5 5 0 0 1 5-5v-2a7 7 0 0 0-7 7"/></svg>

<svg  viewBox="0 0 24 24" fill="currentColor"><path  d="M6,3H3V6A3,3 0 0,0 6,3M14,3H12A9,9 0 0,1 3,12V14C9.08,14 14,9.07 14,3M10,3H8A5,5 0 0,1 3,8V10A7,7 0 0,0 10,3M10,21H12A9,9 0 0,1 21,12V10A11,11 0 0,0 10,21M18,21H21V18A3,3 0 0,0 18,21M14,21H16A5,5 0 0,1 21,16V14A7,7 0 0,0 14,21Z"/></svg>
